src/lib/packages/icons/src/assets/line/sticky-note-square.svg

<svg xmlns="http://www.w3.org/2000/svg" width="24" height="24" fill="none"><path fill="currentColor" d="M17.625 2.25H6.375c-2.66 0-4.125 1.465-4.125 4.125v11.25c0 2.66 1.465 4.125 4.125 4.125h6.478a4.094 4.094 0 0 0 2.916-1.208l4.773-4.773a4.096 4.096 0 0 0 1.208-2.917V6.375c0-2.66-1.465-4.125-4.125-4.125Zm-11.25 18c-1.84 0-2.625-.785-2.625-2.625V6.375c0-1.84.785-2.625 2.625-2.625h11.25c1.84 0 2.625.785 2.625 2.625v6.477c0 .223-.037.438-.09.648h-3.285a3.379 3.379 0 0 0-3.375 3.375v3.285c-.21.053-.425.09-.647.09H6.375ZM15 19.189v-2.314c0-1.034.841-1.875 1.875-1.875h2.314L15 19.189Z"/></svg>

<svg width="24" height="24" viewBox="0 0 24 24" fill="none" xmlns="http://www.w3.org/2000/svg">
<path d="M17.625 2.25H6.375C3.715 2.25 2.25 3.715 2.25 6.375V17.625C2.25 20.285 3.715 21.75 6.375 21.75H12.853C13.955 21.75 14.991 21.321 15.769 20.542L20.542 15.769C21.321 14.99 21.75 13.9551 21.75 12.8521V6.375C21.75 3.715 20.285 2.25 17.625 2.25ZM6.375 20.25C4.535 20.25 3.75 19.465 3.75 17.625V6.375C3.75 4.535 4.535 3.75 6.375 3.75H17.625C19.465 3.75 20.25 4.535 20.25 6.375V12.8521C20.25 13.0751 20.2129 13.29 20.1599 13.5H16.875C15.014 13.5 13.5 15.014 13.5 16.875V20.16C13.29 20.213 13.075 20.25 12.853 20.25H6.375ZM15 19.189V16.875C15 15.841 15.841 15 16.875 15H19.189L15 19.189Z" fill="currentColor"/>
</svg>
